image/logo/Hugo Award/svg.svg

<?xml version="1.0" encoding="UTF-8" standalone="no"?>
<svg
   xmlns:dc="http://purl.org/dc/elements/1.1/"
   xmlns:cc="http://creativecommons.org/ns#"
   xmlns:rdf="http://www.w3.org/1999/02/22-rdf-syntax-ns#"
   xmlns:svg="http://www.w3.org/2000/svg"
   xmlns="http://www.w3.org/2000/svg"
   xmlns:sodipodi="http://sodipodi.sourceforge.net/DTD/sodipodi-0.dtd"
   xmlns:inkscape="http://www.inkscape.org/namespaces/inkscape"
   inkscape:export-ydpi="96"
   inkscape:export-xdpi="96"
   inkscape:export-filename="/home/will/tip/image/logo/Hugo Award/png.png"
   inkscape:version="1.0 (6e3e5246a0, 2020-05-07)"
   sodipodi:docname="svg.svg"
   id="svg35"
   version="1.1"
   viewBox="0 0 470.59174 683.16"
   height="100%"
   width="100%">
  <metadata
     id="metadata41">
    <rdf:RDF>
      <cc:Work
         rdf:about="">
        <dc:format>image/svg+xml</dc:format>
        <dc:type
           rdf:resource="http://purl.org/dc/dcmitype/StillImage" />
        <dc:title></dc:title>
      </cc:Work>
    </rdf:RDF>
  </metadata>
  <defs
     id="defs39" />
  <sodipodi:namedview
     inkscape:current-layer="g89"
     inkscape:window-maximized="1"
     inkscape:window-y="27"
     inkscape:window-x="0"
     inkscape:cy="413.93911"
     inkscape:cx="-280.39348"
     inkscape:zoom="1.2032068"
     fit-margin-bottom="0"
     fit-margin-right="0"
     fit-margin-left="0"
     fit-margin-top="0"
     showgrid="false"
     id="namedview37"
     inkscape:window-height="1385"
     inkscape:window-width="3440"
     inkscape:pageshadow="2"
     inkscape:pageopacity="0"
     guidetolerance="10"
     gridtolerance="10"
     objecttolerance="10"
     borderopacity="1"
     bordercolor="#666666"
     pagecolor="#ffffff" />
  <g
     transform="translate(1.6287554,-1.28)"
     id="#ffffffff" />
  <path
     fill="#242021"
     opacity="1"
     d="m 231.73876,5.74 c 1.3,-2.29 3,-4.35 5.27,-5.74 0.12,227.61 0.02,455.22 0.05,682.82 -5.03,0.29 -10.07,0.1 -15.1,0.15 0.02,-72.99 -5.14,-145.86 -10.07,-218.65 -6.01,-84.75 -11.78,-169.69 -10.12,-254.69 0.73,-39.4 2.77,-78.84 7.84,-117.94 2.8,-20.77 6.34,-41.52 12.29,-61.64 2.56,-8.36 5.4,-16.73 9.84,-24.31 z"
     id="path3" />
  <path
     fill="#242021"
     opacity="1"
     d="m 262.48876,464.88 c 0.49,0.24 1.47,0.72 1.95,0.95 13.12,6.57 21.15,20.02 25.39,33.61 6.36,20.74 6.95,42.72 6.25,64.24 -1.47,39.8 -4.12,79.54 -6.51,119.3 -12.37,-0.02 -24.74,0 -37.11,-0.02 0.07,-72.8 5.09,-145.48 10.03,-218.08 z"
     id="path5" />
  <g
     transform="translate(1.6287554,-1.28)"
     id="#949599ff">
    <path
       id="path30"
       d="m 235.38,1.28 c 4.57,2.7 6.65,7.86 8.86,12.43 7.01,16.15 10.87,33.46 14.18,50.7 8.25,45.68 10.99,92.15 12.17,138.5 2.22,87.73 -3.78,175.38 -9.69,262.86 0.48,0.33 1.43,1.01 1.91,1.34 -0.48,-0.23 -1.46,-0.71 -1.95,-0.95 -4.94,72.6 -9.96,145.28 -10.03,218.08 -5.13,0.09 -10.27,-0.16 -15.4,0.2 V 684.1 C 235.4,456.5 235.5,228.89 235.38,1.28 Z"
       opacity="1"
       fill="#949599" />
    <path
       id="path32"
       d="m 210.26,465.6 c 4.93,72.79 10.09,145.66 10.07,218.65 -12.43,0.01 -24.86,-0.01 -37.28,0.01 -2.04,-29.46 -3.71,-58.94 -5.28,-88.43 -1.02,-24.23 -2.98,-48.63 0.16,-72.79 2.23,-16.43 6.49,-33.6 17.76,-46.32 4.02,-4.73 9.36,-7.92 14.57,-11.12 z"
       opacity="1"
       fill="#949599" />
  </g>
  <g
     transform="translate(0,-489.77897)"
     id="g89">
    <path
       id="path7"
       d="m 253.42,713.25 c 6.9,14.36 13.14,29.02 19.75,43.52 -2.37,-0.03 -4.72,-0.02 -7.08,-0.01 -1.41,-3.26 -2.79,-6.51 -4.18,-9.76 -5.75,0 -11.49,0 -17.23,0 -1.49,3.23 -2.99,6.46 -4.42,9.72 -2.33,0.02 -4.66,0.03 -6.99,0.06 6.61,-14.56 13.57,-28.96 20.15,-43.53 m -6.03,27.73 c 3.95,0.02 7.91,0.01 11.87,0.02 -1.89,-4.48 -3.94,-8.89 -5.74,-13.41 -2.1,4.44 -4.13,8.91 -6.13,13.39 z"
       opacity="1"
       fill="#242021" />
    <path
       id="path9"
       d="m 296.57,742.78 c 3.73,-9.66 7.32,-19.38 11.08,-29.03 3.65,9.63 7,19.38 10.61,29.04 3.57,-8.98 7.39,-17.85 11.04,-26.79 2.33,-0.01 4.66,-0.01 7,0 -6.03,14.34 -12.02,28.69 -18.12,43 h -1.16 l 0.73,-0.01 c -3.46,-9.31 -6.78,-18.67 -10.21,-27.99 -3.61,9.31 -7.09,18.66 -10.62,28 h -0.47 c -5.86,-14.29 -11.47,-28.68 -17.26,-43 2.32,-0.01 4.65,-0.02 6.98,-0.01 3.48,8.93 7.04,17.82 10.4,26.79 z"
       opacity="1"
       fill="#242021" />
    <path
       id="path11"
       d="m 342.02,756.77 c 6.74,-14.55 13.46,-29.1 20.34,-43.58 6.49,14.53 13.07,29.03 19.56,43.56 -2.34,-0.01 -4.69,0 -7.02,0.02 -1.45,-3.24 -2.85,-6.49 -4.21,-9.76 -5.79,0.01 -11.57,-0.1 -17.35,0.09 -1.41,3.24 -2.88,6.45 -4.39,9.65 -2.31,-0.01 -4.62,0 -6.93,0.02 m 14.11,-15.8 c 3.98,0.03 7.96,0.02 11.95,0.03 -1.99,-4.37 -3.9,-8.77 -5.74,-13.2 -2.34,4.26 -4.17,8.77 -6.21,13.17 z"
       opacity="1"
       fill="#242021" />
    <path
       id="path13"
       d="m 98.99,728.15 c 3.24,-7.82 11.47,-13.45 20.04,-12.95 6.55,-0.3 12.49,3.41 16.66,8.2 -1.49,1.53 -3,3.03 -4.52,4.53 -2.99,-3.66 -7.15,-6.91 -12.12,-6.72 -7.68,-0.43 -14.81,6.22 -15.13,13.87 -1.11,8.54 6.63,16.72 15.14,16.43 5.54,-0.23 10.34,-4.64 11.55,-9.96 -3.46,-0.07 -6.91,-0.05 -10.37,-0.05 0.01,-2.01 0.01,-4.01 0.01,-6.01 5.68,0.02 11.36,0 17.04,0.01 0.27,5.63 -0.63,11.82 -4.83,15.95 -4.48,5.18 -11.87,7.04 -18.44,5.69 -8.31,-1.61 -15.1,-8.85 -16.34,-17.19 -0.52,-3.96 -0.19,-8.08 1.31,-11.8 z"
       opacity="1"
       fill="#242021" />
    <path
       id="path15"
       d="m 169.42,715.64 c 12.52,-3.24 26.35,7.37 25.88,20.39 0.72,10.5 -8.13,20.19 -18.42,21.29 -9.88,1.58 -20.51,-4.78 -23.3,-14.48 -1.65,-5.9 -1.18,-12.65 2.3,-17.82 3.17,-4.61 7.97,-8.3 13.54,-9.38 m 1.05,5.97 c -6.85,1.55 -11.95,8.49 -11.35,15.51 0.14,7.73 7.15,14.48 14.87,14.39 8.25,0.21 15.36,-7.41 14.99,-15.57 0.05,-9.19 -9.53,-16.91 -18.51,-14.33 z"
       opacity="1"
       fill="#242021" />
    <path
       id="path17"
       d="m 0,716.11 c 2.25,-0.07 4.5,-0.12 6.75,-0.15 0.01,5.26 0.01,10.52 0,15.79 5.75,-0.01 11.49,-0.01 17.24,0 C 24,726.5 24,721.25 24,716 c 2.08,-0.01 4.16,-0.01 6.25,0 0.01,13.58 0,27.17 0,40.75 -2.08,-0.01 -4.16,0 -6.25,0 -0.01,-6.33 0,-12.67 -0.01,-19 -5.74,0 -11.49,0 -17.24,0.01 0.01,6.34 0.01,12.68 0,19.03 C 4.5,756.75 2.25,756.74 0,756.58 Z"
       opacity="1"
       fill="#242021" />
    <path
       id="path19"
       d="m 50,716 c 2.08,-0.01 4.17,-0.01 6.25,0 0.11,9.12 -0.22,18.25 0.15,27.36 0.04,4.86 4.73,8.79 9.51,8.11 4.35,-0.16 7.69,-4.22 7.76,-8.43 0.2,-9.02 0,-18.03 0.08,-27.04 2.17,-0.01 4.33,-0.01 6.5,0 -0.01,8.68 0.03,17.36 -0.01,26.04 0.02,4.24 -1.46,8.6 -4.68,11.48 -5.79,5.52 -16.04,5.33 -21.52,-0.52 -2.66,-2.57 -4.13,-6.26 -4.04,-9.94 -0.01,-9.02 0.01,-18.04 0,-27.06 z"
       opacity="1"
       fill="#242021" />
    <path
       id="path21"
       d="m 396.75,716 c 6.58,0.29 14.42,-1.35 19.74,3.56 6.35,5.98 3.24,18.16 -5.46,20.02 4.23,5.67 8.37,11.41 12.5,17.15 -2.68,0.03 -5.36,0.03 -8.03,-0.07 -4,-5.65 -7.64,-11.61 -12.1,-16.91 -0.31,5.66 -0.08,11.33 -0.15,17 -2.17,0 -4.34,-0.01 -6.5,0 0.01,-13.58 -0.01,-27.17 0,-40.75 m 6.5,5.96 c 0,4.19 -0.01,8.39 0.01,12.59 3.28,0 7.36,0.09 9.45,-2.95 1.35,-2.49 1.32,-6.34 -1.23,-8.07 -2.37,-1.77 -5.45,-1.5 -8.23,-1.57 z"
       opacity="1"
       fill="#242021" />
    <path
       id="path23"
       d="m 439,716 c 7.84,0.22 16.62,-1.28 23.4,3.68 10.84,7.31 10.92,25.53 0.25,33.05 -6.73,5.28 -15.71,3.82 -23.65,4.02 -0.01,-13.58 0,-27.17 0,-40.75 m 6.24,5.99 c 0.02,9.59 0.01,19.19 0.01,28.78 4.56,0.06 9.59,0.01 13.34,-2.98 7.26,-5.13 7.34,-17.36 0.3,-22.71 -3.8,-3.11 -8.98,-3.19 -13.65,-3.09 z"
       opacity="1"
       fill="#242021" />
  </g>
</svg>

<?xml version="1.0" encoding="UTF-8" ?>
<!DOCTYPE svg PUBLIC "-//W3C//DTD SVG 1.1//EN" "http://www.w3.org/Graphics/SVG/1.1/DTD/svg11.dtd">
<svg width="258.198889747" height="387.298334621" viewBox="0 0 506 759" version="1.1" xmlns="http://www.w3.org/2000/svg">
<g id="#ffffffff">
</g>
<g id="#242021ff">
<path fill="#242021" opacity="1.00" d=" M 230.11 7.02 C 231.41 4.73 233.11 2.67 235.38 1.28 C 235.50 228.89 235.40 456.50 235.43 684.10 C 230.40 684.39 225.36 684.20 220.33 684.25 C 220.35 611.26 215.19 538.39 210.26 465.60 C 204.25 380.85 198.48 295.91 200.14 210.91 C 200.87 171.51 202.91 132.07 207.98 92.97 C 210.78 72.20 214.32 51.45 220.27 31.33 C 222.83 22.97 225.67 14.60 230.11 7.02 Z" />
<path fill="#242021" opacity="1.00" d=" M 260.86 466.16 C 261.35 466.40 262.33 466.88 262.81 467.11 C 275.93 473.68 283.96 487.13 288.20 500.72 C 294.56 521.46 295.15 543.44 294.45 564.96 C 292.98 604.76 290.33 644.50 287.94 684.26 C 275.57 684.24 263.20 684.26 250.83 684.24 C 250.90 611.44 255.92 538.76 260.86 466.16 Z" />
<path fill="#242021" opacity="1.00" d=" M 253.42 713.25 C 260.32 727.61 266.56 742.27 273.17 756.77 C 270.80 756.74 268.45 756.75 266.09 756.76 C 264.68 753.50 263.30 750.25 261.91 747.00 C 256.16 747.00 250.42 747.00 244.68 747.00 C 243.19 750.23 241.69 753.46 240.26 756.72 C 237.93 756.74 235.60 756.75 233.27 756.78 C 239.88 742.22 246.84 727.82 253.42 713.25 M 247.39 740.98 C 251.34 741.00 255.30 740.99 259.26 741.00 C 257.37 736.52 255.32 732.11 253.52 727.59 C 251.42 732.03 249.39 736.50 247.39 740.98 Z" />
<path fill="#242021" opacity="1.00" d=" M 296.57 742.78 C 300.30 733.12 303.89 723.40 307.65 713.75 C 311.30 723.38 314.65 733.13 318.26 742.79 C 321.83 733.81 325.65 724.94 329.30 716.00 C 331.63 715.99 333.96 715.99 336.30 716.00 C 330.27 730.34 324.28 744.69 318.18 759.00 L 317.02 759.00 L 317.75 758.99 C 314.29 749.68 310.97 740.32 307.54 731.00 C 303.93 740.31 300.45 749.66 296.92 759.00 L 296.45 759.00 C 290.59 744.71 284.98 730.32 279.19 716.00 C 281.51 715.99 283.84 715.98 286.17 715.99 C 289.65 724.92 293.21 733.81 296.57 742.78 Z" />
<path fill="#242021" opacity="1.00" d=" M 342.02 756.77 C 348.76 742.22 355.48 727.67 362.36 713.19 C 368.85 727.72 375.43 742.22 381.92 756.75 C 379.58 756.74 377.23 756.75 374.90 756.77 C 373.45 753.53 372.05 750.28 370.69 747.01 C 364.90 747.02 359.12 746.91 353.34 747.10 C 351.93 750.34 350.46 753.55 348.95 756.75 C 346.64 756.74 344.33 756.75 342.02 756.77 M 356.13 740.97 C 360.11 741.00 364.09 740.99 368.08 741.00 C 366.09 736.63 364.18 732.23 362.34 727.80 C 360.00 732.06 358.17 736.57 356.13 740.97 Z" />
<path fill="#242021" opacity="1.00" d=" M 98.99 728.15 C 102.23 720.33 110.46 714.70 119.03 715.20 C 125.58 714.90 131.52 718.61 135.69 723.40 C 134.20 724.93 132.69 726.43 131.17 727.93 C 128.18 724.27 124.02 721.02 119.05 721.21 C 111.37 720.78 104.24 727.43 103.92 735.08 C 102.81 743.62 110.55 751.80 119.06 751.51 C 124.60 751.28 129.40 746.87 130.61 741.55 C 127.15 741.48 123.70 741.50 120.24 741.50 C 120.25 739.49 120.25 737.49 120.25 735.49 C 125.93 735.51 131.61 735.49 137.29 735.50 C 137.56 741.13 136.66 747.32 132.46 751.45 C 127.98 756.63 120.59 758.49 114.02 757.14 C 105.71 755.53 98.92 748.29 97.68 739.95 C 97.16 735.99 97.49 731.87 98.99 728.15 Z" />
<path fill="#242021" opacity="1.00" d=" M 169.42 715.64 C 181.94 712.40 195.77 723.01 195.30 736.03 C 196.02 746.53 187.17 756.22 176.88 757.32 C 167.00 758.90 156.37 752.54 153.58 742.84 C 151.93 736.94 152.40 730.19 155.88 725.02 C 159.05 720.41 163.85 716.72 169.42 715.64 M 170.47 721.61 C 163.62 723.16 158.52 730.10 159.12 737.12 C 159.26 744.85 166.27 751.60 173.99 751.51 C 182.24 751.72 189.35 744.10 188.98 735.94 C 189.03 726.75 179.45 719.03 170.47 721.61 Z" />
<path fill="#242021" opacity="1.00" d=" M 0.00 716.11 C 2.25 716.04 4.50 715.99 6.75 715.96 C 6.76 721.22 6.76 726.48 6.75 731.75 C 12.50 731.74 18.24 731.74 23.99 731.75 C 24.00 726.50 24.00 721.25 24.00 716.00 C 26.08 715.99 28.16 715.99 30.25 716.00 C 30.26 729.58 30.25 743.17 30.25 756.75 C 28.17 756.74 26.09 756.75 24.00 756.75 C 23.99 750.42 24.00 744.08 23.99 737.75 C 18.25 737.75 12.50 737.75 6.75 737.76 C 6.76 744.10 6.76 750.44 6.75 756.79 C 4.50 756.75 2.25 756.74 0.00 756.58 L 0.00 716.11 Z" />
<path fill="#242021" opacity="1.00" d=" M 50.00 716.00 C 52.08 715.99 54.17 715.99 56.25 716.00 C 56.36 725.12 56.03 734.25 56.40 743.36 C 56.44 748.22 61.13 752.15 65.91 751.47 C 70.26 751.31 73.60 747.25 73.67 743.04 C 73.87 734.02 73.67 725.01 73.75 716.00 C 75.92 715.99 78.08 715.99 80.25 716.00 C 80.24 724.68 80.28 733.36 80.24 742.04 C 80.26 746.28 78.78 750.64 75.56 753.52 C 69.77 759.04 59.52 758.85 54.04 753.00 C 51.38 750.43 49.91 746.74 50.00 743.06 C 49.99 734.04 50.01 725.02 50.00 716.00 Z" />
<path fill="#242021" opacity="1.00" d=" M 396.75 716.00 C 403.33 716.29 411.17 714.65 416.49 719.56 C 422.84 725.54 419.73 737.72 411.03 739.58 C 415.26 745.25 419.40 750.99 423.53 756.73 C 420.85 756.76 418.17 756.76 415.50 756.66 C 411.50 751.01 407.86 745.05 403.40 739.75 C 403.09 745.41 403.32 751.08 403.25 756.75 C 401.08 756.75 398.91 756.74 396.75 756.75 C 396.76 743.17 396.74 729.58 396.75 716.00 M 403.25 721.96 C 403.25 726.15 403.24 730.35 403.26 734.55 C 406.54 734.55 410.62 734.64 412.71 731.60 C 414.06 729.11 414.03 725.26 411.48 723.53 C 409.11 721.76 406.03 722.03 403.25 721.96 Z" />
<path fill="#242021" opacity="1.00" d=" M 439.00 716.00 C 446.84 716.22 455.62 714.72 462.40 719.68 C 473.24 726.99 473.32 745.21 462.65 752.73 C 455.92 758.01 446.94 756.55 439.00 756.75 C 438.99 743.17 439.00 729.58 439.00 716.00 M 445.24 721.99 C 445.26 731.58 445.25 741.18 445.25 750.77 C 449.81 750.83 454.84 750.78 458.59 747.79 C 465.85 742.66 465.93 730.43 458.89 725.08 C 455.09 721.97 449.91 721.89 445.24 721.99 Z" />
<path fill="#242021" opacity="1.00" d=" M 492.35 715.65 C 493.70 717.94 494.35 721.05 496.03 722.85 C 497.58 720.90 498.35 717.99 499.66 715.70 C 500.26 719.77 501.53 723.80 501.32 727.96 C 498.90 726.60 499.42 723.62 498.87 721.36 C 498.03 723.33 497.20 725.32 496.24 727.25 C 494.40 725.95 494.13 723.30 493.09 721.40 C 492.20 723.42 493.36 727.55 490.17 727.49 C 490.83 723.53 491.62 719.59 492.35 715.65 Z" />
<path fill="#242021" opacity="1.00" d=" M 482.44 719.01 C 482.53 715.53 488.96 715.61 488.32 719.38 C 487.24 718.94 486.16 718.50 485.10 718.06 C 484.86 718.50 484.38 719.38 484.14 719.82 C 485.73 720.74 488.15 721.08 488.72 723.12 C 489.26 724.77 487.90 726.07 487.11 727.36 C 484.92 727.52 482.11 726.97 481.92 724.31 C 482.28 724.14 483.01 723.81 483.37 723.65 C 484.16 725.57 485.35 726.03 486.95 725.01 C 487.49 721.63 481.79 722.51 482.44 719.01 Z" />
</g>
<g id="#949599ff">
<path fill="#949599" opacity="1.00" d=" M 235.38 1.28 C 239.95 3.98 242.03 9.14 244.24 13.71 C 251.25 29.86 255.11 47.17 258.42 64.41 C 266.67 110.09 269.41 156.56 270.59 202.91 C 272.81 290.64 266.81 378.29 260.90 465.77 C 261.38 466.10 262.33 466.78 262.81 467.11 C 262.33 466.88 261.35 466.40 260.86 466.16 C 255.92 538.76 250.90 611.44 250.83 684.24 C 245.70 684.33 240.56 684.08 235.43 684.44 L 235.43 684.10 C 235.40 456.50 235.50 228.89 235.38 1.28 Z" />
<path fill="#949599" opacity="1.00" d=" M 210.26 465.60 C 215.19 538.39 220.35 611.26 220.33 684.25 C 207.90 684.26 195.47 684.24 183.05 684.26 C 181.01 654.80 179.34 625.32 177.77 595.83 C 176.75 571.60 174.79 547.20 177.93 523.04 C 180.16 506.61 184.42 489.44 195.69 476.72 C 199.71 471.99 205.05 468.80 210.26 465.60 Z" />
</g>
</svg>
